swiss/communes/2845.svg

<svg xmlns="http://www.w3.org/2000/svg" xmlns:xlink="http://www.w3.org/1999/xlink" width="540" height="620"><defs><clipPath id="a"><path d="M9 9h522v341a261 261 0 0 1-522 0z"/></clipPath></defs><path d="M0 0h540v350a270 270 0 0 1-540 0"/><g clip-path="url(#a)"><path d="M0 200h540v320H0" fill="#fff"/><path d="M0 528h540v90H0" fill="#00901e"/><g stroke="#000" stroke-width="4" fill="#e2001a"><path d="M237.125 189v60a32.875 25 0 0 0 65.75 0v-60"/><g id="c"><g id="b"><path d="M302.875 189v60a32.875 25 0 0 0 65.75 0v-60 60a32.875 25 0 0 0 65.75 0v-60"/><path d="M270 127v60a32.875 25 0 0 0 65.75 0v-60 60a32.875 25 0 0 0 65.75 0v-60 60a32.875 25 0 0 0 32.875 25v-85"/><path d="M237.125 83v42a32.875 25 0 0 0 65.75 0V83v42a32.875 25 0 0 0 65.75 0V83v42a32.875 25 0 0 0 65.75 0V83z"/></g><use x="-328.75" y="64" xlink:href="#b"/></g><use xlink:href="#c" transform="matrix(-1 0 0 1 540 0)"/></g></g><path d="M286 312v210h-32V312M151 520V341a250 250 0 0 1 238 0v179" stroke="#000" stroke-width="4" fill="#e2001a"/><path d="M151 354h23v13h80v29h-80v13h-23m0 39h23v13h80v29h-80v13h-23" id="d"/><use xlink:href="#d" transform="matrix(-1 0 0 1 540 0)"/></svg>

<?xml version="1.0" encoding="utf-8" standalone="no"?>
<!DOCTYPE svg PUBLIC "-//W3C//DTD SVG 1.1//EN" "http://www.w3.org/Graphics/SVG/1.1/DTD/svg11.dtd">
<svg version="1.1"
   xmlns="http://www.w3.org/2000/svg"
   xmlns:xlink="http://www.w3.org/1999/xlink"
   width="540" height="620" viewBox="0,0 540,620">
  <title>Wappen von Diepflingen</title>
  <desc>Wappen der Schweizer Gemeinde Diepflingen, Kanton Baselland</desc>
  <defs>
    <clipPath id="cpSchild"> <path d="M 9,9 H 531 V 350 A 261,261 0 0,1 9,350 z" /> </clipPath>
  </defs>
  <path d="M 0,0 H 540 V 350 A 270,270 0 0,1 0,350" />
  <g clip-path="url(#cpSchild)">
    <path d="M 0,200 H 540 V 520 H 0" fill="white" />
    <path d="M 0,528 H 540 v 90 H 0" fill="#00901e" />
    <g stroke="black" stroke-width="4" fill="#e2001a">
      <path d="M 237.125,189 v 60 a 32.875,25 0 0,0 65.75,0 v -60" />
      <g id="dach2">
        <g id="dach1">
          <path d="M 302.875,189 v 60 a 32.875,25 0 0,0 65.75,0 v -60 60 a 32.875,25 0 0,0 65.75,0 v -60" />
          <path d="M 270,127 v 60 a 32.875,25 0 0,0 65.75,0 v -60 60 a 32.875,25 0 0,0 65.75,0 v -60 60 a 32.875,25 0 0,0 32.875,25 V 127" />
          <path d="M 237.125,83 v 42 a 32.875,25 0 0,0 65.75,0 v -42 42 a 32.875,25 0 0,0 65.75,0 v -42 42 a 32.875,25 0 0,0 65.75,0 v -42 z" />
        </g>
        <use x="-328.75" y="64" xlink:href="#dach1" />
      </g>
      <use xlink:href="#dach2" transform="matrix(-1,0,0,1,540,0)" />
    </g>
  </g>
  <path d="M 286,312 V 522 H 254 V 312 M 151,520 V 341 a 250,250 0 0,1 238,0 V 520" stroke="black" stroke-width="4" fill="#e2001a" />
  <path d="M 151,354 h 23 v 13 h 80 v 29 h -80 v 13 h -23 m 0,39 h 23 v 13 h 80 v 29 h -80 v 13 h -23" id="scharnier" />
  <use xlink:href="#scharnier" transform="matrix(-1,0,0,1,540,0)" />
</svg>
